X:117
T:Spanish Dollar TS.117
M:C|
L:1/8
Q:1/2=90
S:Thomas Sands’ MS,1810,Lincolnshire
R:.hornpipe
C:”Capital”
O:England;Lincolnshire
Z:vmp.Ruairidh Greig, 2011
K:G
Bc|d2dg edcB|egfg edcB|AGBG DGBG|ABcd cBAG|
d2dg edcB|egfg edcB|g2bg ecAF|G2G2G2:|
|:Bc|d2de dBGB|c2e2e2AB|c2cd cAFA|dgfag2Bc|
dBdg eceg|fdfag2ga|bgbg ecAF|G2G2G2:|]

